!!!COM: Beethoven
!!!OTL: 32 Variationen fur das pianoforte
!!!Variation: Variation 18 a
**function	**harm	**kern	**kern
*	*	*clefF4	*clefG2
*	*	*k[b-e-a-]	*k[b-e-a-]
*M3/4	*M3/4	*M3/4	*M3/4
*c:	*c:	*c:	*c:
=145	=145	=145	=145
2.T	2.i	2.CC 2.EE- 2.GG 2.C	8cL 8e- 8g 8cc
.	.	.	16cL
.	.	.	16dJJ
.	.	.	48e-LLL
.	.	.	48f
.	.	.	48gJJ
.	.	.	48aLL
.	.	.	48b
.	.	.	48ccJJ
.	.	.	48ddLL
.	.	.	48ee-
.	.	.	48ffJJ
.	.	.	48ggLL
.	.	.	48aa
.	.	.	48bbJJJ
.	.	.	8ccc
.	.	.	8r
=146	=146	=146	=146
2.T	2.V	2.GGG 2.BBB 2.DD 2.GG	8r
.	.	.	16dLL
.	.	.	16e-JJ
.	.	.	48fLLL
.	.	.	48g
.	.	.	48aJJ
.	.	.	48bLL
.	.	.	48cc
.	.	.	48ddJJ
.	.	.	48ee-LL
.	.	.	48ff
.	.	.	48ggJJ
.	.	.	48aaLL
.	.	.	48bb
.	.	.	48cccJJJ
.	.	.	8ddd
.	.	.	8r
=147	=147	=147	=147
2.T	2.V7/IV	2.CC 2.EE 2.GG 2.BB- 2.C	8r
.	.	.	16eLL
.	.	.	16fJJ
.	.	.	48gLLL
.	.	.	48a
.	.	.	48b-JJ
.	.	.	48ccLL
.	.	.	48dd
.	.	.	48ee-JJ
.	.	.	48ffLL
.	.	.	48gg
.	.	.	48aaJJ
.	.	.	48bb-LL
.	.	.	48ccc
.	.	.	48dddJJJ
.	.	.	8eee
.	.	.	8r
=148	=148	=148	=148
2.P	2.IV	2.FFF 2.AAA 2.CC 2.FF	8r
.	.	.	16fLL
.	.	.	16gJJ
.	.	.	48aLLL
.	.	.	48b-
.	.	.	48ccJJ
.	.	.	48ddLL
.	.	.	48ee
.	.	.	48ffJJ
.	.	.	48ggLL
.	.	.	48aa
.	.	.	48bb-JJ
.	.	.	48cccLL
.	.	.	48ddd
.	.	.	48eeeJJJ
.	.	.	8fff
.	.	.	8r
=149	=149	=149	=149
2.P	2.V/V	2.DD 2.FF# 2.AA 2.D	8r
.	.	.	16f#LL
.	.	.	16gJJ
.	.	.	48aLLL
.	.	.	48b
.	.	.	48ccJJ
.	.	.	48ddLL
.	.	.	48ee
.	.	.	48ff#JJ
.	.	.	48ggLL
.	.	.	48aa
.	.	.	48bbJJ
.	.	.	48cccLL
.	.	.	48ddd
.	.	.	48eeeJJJ
.	.	.	8fff#L
.	.	.	56ggLL
.	.	.	56aa
.	.	.	56bb
.	.	.	56ccc
.	.	.	56ddd
.	.	.	56eee
.	.	.	56fff#JJJ
=150	=150	=150	=150
4D	4V	8GGG 8GG	8gggL
.	.	8r	56aa-LL
.	.	.	56bb-
.	.	.	56ccc
.	.	.	56ddd
.	.	.	56eee-
.	.	.	56fff
.	.	.	56gggJJJ
2D	2viioD7d	8AAA- 8AA-	8aaa-L
.	.	8r	56ffLL
.	.	.	56gg
.	.	.	56aa-
.	.	.	56bb-
.	.	.	56ccc
.	.	.	56ddd
.	.	.	56eee-JJJ
.	.	4r	8fffL
.	.	.	56ddLL
.	.	.	56ee-
.	.	.	56ff
.	.	.	56gg
.	.	.	56aa
.	.	.	56bb
.	.	.	56cccJJJ
=151	=151	=151	=151
4D	4viioD7d	2.r	8dddL
.	.	.	56a-LL
.	.	.	56b-
.	.	.	56cc
.	.	.	56dd
.	.	.	56ee-
.	.	.	56ff
.	.	.	56ggJJJ
4D	4V	.	8aa-L
.	.	.	56gLL
.	.	.	56a
.	.	.	56b
.	.	.	56cc
.	.	.	56dd
.	.	.	56ee-
.	.	.	56ffJJJ
4T	4i	.	8ggL
.	.	.	56cLL
.	.	.	56d
.	.	.	56e-
.	.	.	56f
.	.	.	56g
.	.	.	56an
.	.	.	56bnJJJ
=152	=152	=152	=152
2.T	2.i	4r	8cc'
*	*	*	*clefF4
.	.	.	56CLLL
.	.	.	56D
.	.	.	56E-
.	.	.	56F
.	.	.	56G
.	.	.	56An
.	.	.	56BnJJJ
.	.	8r	8c
.	.	56CCLLL	8r
.	.	56DD	.
.	.	56EE-	.
.	.	56FF	.
.	.	56GG	.
.	.	56AAn	.
.	.	56BBnJJJ	.
.	.	8C	4r
.	.	8r	.
*-	*-	*-	*-
